assets/icon_envelope.svg

<svg fill="none" height="24" viewBox="0 0 32 24" width="32" xmlns="http://www.w3.org/2000/svg"><path d="m0 4c0-2.1875 1.75-4 4-4h24c2.1875 0 4 1.8125 4 4v16c0 2.25-1.8125 4-4 4h-24c-2.25 0-4-1.75-4-4zm1 0v1.8125l12.75 10.3125c1.3125 1 3.125 1 4.4375 0l12.8125-10.3125v-1.8125c0-1.625-1.375-3-3-3h-24.0625c-1.625 0-3 1.375-3 3zm0 3.0625v12.9375c0 1.6875 1.3125 3 3 3h24c1.625 0 3-1.3125 3-3v-12.9375l-12.1875 9.8125c-1.6875 1.375-4 1.375-5.6875 0z" fill="#f8fafc"/></svg>

<svg width="32" height="24" viewBox="0 0 32 24" fill="none" xmlns="http://www.w3.org/2000/svg">
<path d="M0 4C0 1.8125 1.75 0 4 0H28C30.1875 0 32 1.8125 32 4V20C32 22.25 30.1875 24 28 24H4C1.75 24 0 22.25 0 20V4ZM1 4V5.8125L13.75 16.125C15.0625 17.125 16.875 17.125 18.1875 16.125L31 5.8125V4C31 2.375 29.625 1 28 1H3.9375C2.3125 1 0.9375 2.375 0.9375 4H1ZM1 7.0625V20C1 21.6875 2.3125 23 4 23H28C29.625 23 31 21.6875 31 20V7.0625L18.8125 16.875C17.125 18.25 14.8125 18.25 13.125 16.875L1 7.0625Z" fill="#F8FAFC"/>
</svg>
